public/images/icon-twitter.svg

<svg width="40" height="40" viewBox="0 0 40 40" fill="none" xmlns="http://www.w3.org/2000/svg">
<g id="icon/twitter">
<path id="vector" d="M33.4187 12.8782C33.4385 13.1649 33.4385 13.4516 33.4385 13.7409C33.4385 22.557 26.727 32.7246 14.4548 32.7246V32.7194C10.8295 32.7246 7.27954 31.6862 4.22766 29.7283C4.7548 29.7917 5.28459 29.8234 5.81569 29.8247C8.82001 29.8273 11.7384 28.8193 14.102 26.9631C11.247 26.9089 8.74338 25.0474 7.86877 22.3298C8.86889 22.5227 9.89939 22.483 10.881 22.2148C7.76837 21.586 5.529 18.8512 5.529 15.6751C5.529 15.646 5.529 15.6183 5.529 15.5905C6.45646 16.1071 7.49489 16.3938 8.5571 16.4255C5.62545 14.4662 4.72177 10.5662 6.49213 7.51694C9.87958 11.6852 14.8775 14.2192 20.2427 14.4874C19.705 12.1701 20.4396 9.74177 22.173 8.11278C24.8602 5.58673 29.0866 5.7162 31.6126 8.40212C33.1069 8.1075 34.539 7.55922 35.8496 6.78237C35.3515 8.32681 34.3091 9.63872 32.9166 10.4724C34.2391 10.3165 35.5312 9.9624 36.748 9.42205C35.8522 10.7643 34.724 11.9336 33.4187 12.8782Z" fill="black"/>
</g>
</svg>

<svg xmlns="http://www.w3.org/2000/svg" width="40" height="40" fill="none"><path fill="#000" d="M33.419 12.878c.02.287.02.574.02.863 0 8.816-6.712 18.984-18.984 18.984v-.006a18.89 18.89 0 0 1-10.227-2.99 13.398 13.398 0 0 0 9.874-2.765 6.68 6.68 0 0 1-6.233-4.634c1 .193 2.03.153 3.012-.115a6.672 6.672 0 0 1-5.352-6.54v-.085a6.63 6.63 0 0 0 3.028.835 6.68 6.68 0 0 1-2.065-8.908 18.937 18.937 0 0 0 13.75 6.97 6.68 6.68 0 0 1 11.37-6.085 13.388 13.388 0 0 0 4.238-1.62 6.697 6.697 0 0 1-2.933 3.69 13.27 13.27 0 0 0 3.831-1.05 13.556 13.556 0 0 1-3.33 3.456Z"/></svg>
